static/img/kroki/e185de590c65429d7e2ae0e636b169ef.svg

<?xml version="1.0" encoding="us-ascii" standalone="no"?><svg xmlns="http://www.w3.org/2000/svg" xmlns:xlink="http://www.w3.org/1999/xlink" contentStyleType="text/css" height="352px" preserveAspectRatio="none" style="width:277px;height:352px;" version="1.1" viewBox="0 0 277 352" width="277px" zoomAndPan="magnify"><defs/><g><!--class azure_bastion_host--><g id="elem_azure_bastion_host"><rect codeLine="22" fill="#3D176E" height="39.7891" id="azure_bastion_host" rx="2.5" ry="2.5" style="stroke:#000D19;stroke-width:0.5;" width="203" x="26.5" y="206.58"/><ellipse cx="41.5" cy="226.4745" fill="#ADD1B2" rx="11" ry="11" style="stroke:#181818;stroke-width:1.0;"/><path d="M44.4688,232.1152 Q43.8906,232.412 43.25,232.5527 Q42.6094,232.7089 41.9063,232.7089 Q39.4063,232.7089 38.0781,231.0683 Q36.7656,229.412 36.7656,226.287 Q36.7656,223.162 38.0781,221.5058 Q39.4063,219.8495 41.9063,219.8495 Q42.6094,219.8495 43.25,220.0058 Q43.9063,220.162 44.4688,220.4589 L44.4688,223.1777 Q43.8438,222.5995 43.25,222.3339 Q42.6563,222.0527 42.0313,222.0527 Q40.6875,222.0527 40,223.1308 Q39.3125,224.1933 39.3125,226.287 Q39.3125,228.3808 40,229.4589 Q40.6875,230.5214 42.0313,230.5214 Q42.6563,230.5214 43.25,230.2558 Q43.8438,229.9745 44.4688,229.3964 L44.4688,232.1152 Z " fill="#000000"/><text fill="#D9B8FF" font-family="Helvetica" font-size="17" lengthAdjust="spacing" textLength="161" x="60.5" y="232.3598">azure_bastion_host</text></g><!--class azure_public_ip_address--><g id="elem_azure_public_ip_address"><rect codeLine="24" fill="#3D176E" height="39.7891" id="azure_public_ip_address" rx="2.5" ry="2.5" style="stroke:#000D19;stroke-width:0.5;" width="242" x="7" y="306.37"/><ellipse cx="22" cy="326.2645" fill="#ADD1B2" rx="11" ry="11" style="stroke:#181818;stroke-width:1.0;"/><path d="M24.9688,331.9052 Q24.3906,332.202 23.75,332.3427 Q23.1094,332.4989 22.4063,332.4989 Q19.9063,332.4989 18.5781,330.8583 Q17.2656,329.202 17.2656,326.077 Q17.2656,322.952 18.5781,321.2958 Q19.9063,319.6395 22.4063,319.6395 Q23.1094,319.6395 23.75,319.7958 Q24.4063,319.952 24.9688,320.2489 L24.9688,322.9677 Q24.3438,322.3895 23.75,322.1239 Q23.1563,321.8427 22.5313,321.8427 Q21.1875,321.8427 20.5,322.9208 Q19.8125,323.9833 19.8125,326.077 Q19.8125,328.1708 20.5,329.2489 Q21.1875,330.3114 22.5313,330.3114 Q23.1563,330.3114 23.75,330.0458 Q24.3438,329.7645 24.9688,329.1864 L24.9688,331.9052 Z " fill="#000000"/><text fill="#D9B8FF" font-family="Helvetica" font-size="17" lengthAdjust="spacing" textLength="200" x="41" y="332.1498">azure_public_ip_address</text></g><!--class azure_subnet--><g id="elem_azure_subnet"><rect codeLine="26" fill="#3D176E" height="39.7891" id="azure_subnet" rx="2.5" ry="2.5" style="stroke:#000D19;stroke-width:0.5;" width="154" x="116" y="106.79"/><ellipse cx="131" cy="126.6845" fill="#ADD1B2" rx="11" ry="11" style="stroke:#181818;stroke-width:1.0;"/><path d="M133.9688,132.3252 Q133.3906,132.622 132.75,132.7627 Q132.1094,132.9189 131.4063,132.9189 Q128.9063,132.9189 127.5781,131.2783 Q126.2656,129.622 126.2656,126.497 Q126.2656,123.372 127.5781,121.7158 Q128.9063,120.0595 131.4063,120.0595 Q132.1094,120.0595 132.75,120.2158 Q133.4063,120.372 133.9688,120.6689 L133.9688,123.3877 Q133.3438,122.8095 132.75,122.5439 Q132.1563,122.2627 131.5313,122.2627 Q130.1875,122.2627 129.5,123.3408 Q128.8125,124.4033 128.8125,126.497 Q128.8125,128.5908 129.5,129.6689 Q130.1875,130.7314 131.5313,130.7314 Q132.1563,130.7314 132.75,130.4658 Q133.3438,130.1845 133.9688,129.6064 L133.9688,132.3252 Z " fill="#000000"/><text fill="#D9B8FF" font-family="Helvetica" font-size="17" lengthAdjust="spacing" textLength="112" x="150" y="132.5698">azure_subnet</text></g><!--class azure_virtual_network--><g id="elem_azure_virtual_network"><rect codeLine="28" fill="#3D176E" height="39.7891" id="azure_virtual_network" rx="2.5" ry="2.5" style="stroke:#000D19;stroke-width:0.5;" width="231" x="12.5" y="7"/><ellipse cx="27.5" cy="26.8945" fill="#ADD1B2" rx="11" ry="11" style="stroke:#181818;stroke-width:1.0;"/><path d="M30.4688,32.5352 Q29.8906,32.832 29.25,32.9727 Q28.6094,33.1289 27.9063,33.1289 Q25.4063,33.1289 24.0781,31.4883 Q22.7656,29.832 22.7656,26.707 Q22.7656,23.582 24.0781,21.9258 Q25.4063,20.2695 27.9063,20.2695 Q28.6094,20.2695 29.25,20.4258 Q29.9063,20.582 30.4688,20.8789 L30.4688,23.5977 Q29.8438,23.0195 29.25,22.7539 Q28.6563,22.4727 28.0313,22.4727 Q26.6875,22.4727 26,23.5508 Q25.3125,24.6133 25.3125,26.707 Q25.3125,28.8008 26,29.8789 Q26.6875,30.9414 28.0313,30.9414 Q28.6563,30.9414 29.25,30.6758 Q29.8438,30.3945 30.4688,29.8164 L30.4688,32.5352 Z " fill="#000000"/><text fill="#D9B8FF" font-family="Helvetica" font-size="17" lengthAdjust="spacing" textLength="189" x="46.5" y="32.7798">azure_virtual_network</text></g><!--link azure_bastion_host to azure_public_ip_address--><g id="link_azure_bastion_host_azure_public_ip_address"><path codeLine="30" d="M128,246.8 C128,263.94 128,282.85 128,299.99 " fill="none" id="azure_bastion_host-to-azure_public_ip_address" style="stroke:#1A83AF;stroke-width:2.0;"/><polygon fill="#1A83AF" points="128,305.99,132,296.99,128,300.99,124,296.99,128,305.99" style="stroke:#1A83AF;stroke-width:2.0;"/></g><!--link azure_subnet to azure_bastion_host--><g id="link_azure_subnet_azure_bastion_host"><path codeLine="31" d="M180.16,147.01 C168.76,164.15 155.5188,184.0614 144.1388,201.2014 " fill="none" id="azure_subnet-to-azure_bastion_host" style="stroke:#1A83AF;stroke-width:2.0;"/><polygon fill="#1A83AF" points="140.82,206.2,149.1305,200.9147,143.5856,202.0345,142.4658,196.4896,140.82,206.2" style="stroke:#1A83AF;stroke-width:2.0;"/></g><!--link azure_virtual_network to azure_bastion_host--><g id="link_azure_virtual_network_azure_bastion_host"><path codeLine="32" d="M118.43,47.1 C111.21,62.74 101.89,85.61 98,106.79 C94.8,124.19 94.8,129.19 98,146.58 C101.89,167.77 108.6939,185.1931 115.9139,200.8231 " fill="none" id="azure_virtual_network-to-azure_bastion_host" style="stroke:#1A83AF;stroke-width:2.0;"/><polygon fill="#1A83AF" points="118.43,206.27,118.2871,196.4222,116.3332,201.7309,111.0245,199.777,118.43,206.27" style="stroke:#1A83AF;stroke-width:2.0;"/></g><!--link azure_virtual_network to azure_subnet--><g id="link_azure_virtual_network_azure_subnet"><path codeLine="33" d="M140.84,47.22 C152.24,64.36 165.4799,84.2823 176.8599,101.4123 " fill="none" id="azure_virtual_network-to-azure_subnet" style="stroke:#1A83AF;stroke-width:2.0;"/><polygon fill="#1A83AF" points="180.18,106.41,178.5316,96.7001,177.4132,102.2453,171.868,101.1269,180.18,106.41" style="stroke:#1A83AF;stroke-width:2.0;"/></g><!--SRC=[hP91Qy9048Nl-HKBdWLJQTLB8HMalKYflPKI9jbPioJP3RCJHKl_Uqrjovf4lVIwxvjvxmsRQOa2oufteiGoGNA1oxMfWA0K4P7TpcrXIGoK0ZMUjCM5DNmLM4A9uX6B3R9EeKsyPZhD3JedRZpf0T9yJROsyhYU2OmxI6ZOe-O5E1SnaqvgHY-Cd2LJfTfaU-bWBCF97NOmInBf1ncDHZASjP6hLXTx_n4hlKSH-aTRMiPEp8x5DtKnPKDu8Jj5V_Mp6Pz1IctMujPxUpbc8eDqyhxAGDfjGoied6_Z60ajxogSTrhXR2hLf1T-EWUdpUK4x6l2E077sfeuiux5H_1v8bPrKkWqrbLyw47DxseJhauCTWStchY68ZveMqlvjzxZDtmRXD5q72tUX_VdB8CJevu9VsFGR_zlKySKNm00]--></g></svg>

<svg xmlns="http://www.w3.org/2000/svg" width="277" height="352" viewBox="0 0 277 352"><rect width="203" height="39.789" x="26.5" y="206.58" fill="#3D176E" rx="2.5" ry="2.5" style="stroke:#000d19;stroke-width:.5"/><circle cx="41.5" cy="226.475" r="11" fill="#ADD1B2" style="stroke:#181818;stroke-width:1"/><path d="M44.469 232.115q-.578.297-1.219.438-.64.156-1.344.156-2.5 0-3.828-1.64-1.312-1.657-1.312-4.782t1.312-4.781q1.328-1.656 3.828-1.656.703 0 1.344.156.656.156 1.219.453v2.719q-.625-.578-1.219-.844-.594-.281-1.219-.281-1.343 0-2.031 1.078-.687 1.062-.687 3.156t.687 3.172q.688 1.062 2.031 1.062.625 0 1.219-.265.594-.281 1.219-.86z"/><text x="60.5" y="232.36" fill="#D9B8FF" font-family="Helvetica" font-size="17" textLength="161">azure_bastion_host</text><rect width="242" height="39.789" x="7" y="306.37" fill="#3D176E" rx="2.5" ry="2.5" style="stroke:#000d19;stroke-width:.5"/><circle cx="22" cy="326.264" r="11" fill="#ADD1B2" style="stroke:#181818;stroke-width:1"/><path d="M24.969 331.905q-.578.297-1.219.438-.64.156-1.344.156-2.5 0-3.828-1.64-1.312-1.657-1.312-4.782t1.312-4.781q1.328-1.656 3.828-1.656.703 0 1.344.156.656.156 1.219.453v2.719q-.625-.579-1.219-.844-.594-.281-1.219-.281-1.343 0-2.031 1.078-.687 1.062-.687 3.156t.687 3.172q.688 1.062 2.031 1.062.625 0 1.219-.265.594-.281 1.219-.86z"/><text x="41" y="332.15" fill="#D9B8FF" font-family="Helvetica" font-size="17" textLength="200">azure_public_ip_address</text><rect width="154" height="39.789" x="116" y="106.79" fill="#3D176E" rx="2.5" ry="2.5" style="stroke:#000d19;stroke-width:.5"/><circle cx="131" cy="126.684" r="11" fill="#ADD1B2" style="stroke:#181818;stroke-width:1"/><path d="M133.969 132.325q-.578.297-1.219.438-.64.156-1.344.156-2.5 0-3.828-1.64-1.312-1.657-1.312-4.782t1.312-4.781q1.328-1.656 3.828-1.656.703 0 1.344.156.656.156 1.219.453v2.719q-.625-.579-1.219-.844-.594-.281-1.219-.281-1.344 0-2.031 1.078-.687 1.062-.687 3.156t.687 3.172q.688 1.062 2.031 1.062.625 0 1.219-.265.594-.281 1.219-.86z"/><text x="150" y="132.57" fill="#D9B8FF" font-family="Helvetica" font-size="17" textLength="112">azure_subnet</text><rect width="231" height="39.789" x="12.5" y="7" fill="#3D176E" rx="2.5" ry="2.5" style="stroke:#000d19;stroke-width:.5"/><circle cx="27.5" cy="26.895" r="11" fill="#ADD1B2" style="stroke:#181818;stroke-width:1"/><path d="M30.469 32.535q-.578.297-1.219.438-.64.156-1.344.156-2.5 0-3.828-1.64-1.312-1.657-1.312-4.782t1.312-4.781q1.328-1.656 3.828-1.656.703 0 1.344.156.656.156 1.219.453v2.719q-.625-.578-1.219-.844-.594-.281-1.219-.281-1.343 0-2.031 1.078-.687 1.062-.687 3.156T26 29.879q.688 1.062 2.031 1.062.625 0 1.219-.265.594-.281 1.219-.86z"/><text x="46.5" y="32.78" fill="#D9B8FF" font-family="Helvetica" font-size="17" textLength="189">azure_virtual_network</text><path fill="none" d="M128 246.8v53.19" style="stroke:#1a83af;stroke-width:2"/><path fill="#1A83AF" d="m128 305.99 4-9-4 4-4-4z" style="stroke:#1a83af;stroke-width:2"/><path fill="none" d="M180.16 147.01a84739 84739 0 0 0-36.021 54.191" style="stroke:#1a83af;stroke-width:2"/><path fill="#1A83AF" d="m140.82 206.2 8.31-5.285-5.544 1.12-1.12-5.545z" style="stroke:#1a83af;stroke-width:2"/><path fill="none" d="M118.43 47.1c-7.22 15.64-16.54 38.51-20.43 59.69-3.2 17.4-3.2 22.4 0 39.79 3.89 21.19 10.694 38.613 17.914 54.243" style="stroke:#1a83af;stroke-width:2"/><path fill="#1A83AF" d="m118.43 206.27-.143-9.848-1.954 5.309-5.308-1.954z" style="stroke:#1a83af;stroke-width:2"/><path fill="none" d="M140.84 47.22c11.4 17.14 24.64 37.062 36.02 54.192" style="stroke:#1a83af;stroke-width:2"/><path fill="#1A83AF" d="m180.18 106.41-1.648-9.71-1.119 5.545-5.545-1.118z" style="stroke:#1a83af;stroke-width:2"/></svg>
